X: 23417
T: Les Frères Pigeon
R: reel
M: 4/4
K: Bminor
|:Bcdc B2F2|Bcdc B2F2|B3c d3B|c~f3 c~f3|
Bcdc B2F2|Bcdc B2F2|f3g (3fgf e2|1 (3ded c2 B2F2:|2 (3ded c2 B2 (3BcB||
|:A2 ~a3a f2|~d3d d2B2|Affa f2d2|A4 ABAF|
G2 e4 f2|~e3e cAce|a2g2 B2c2|1 f2 (3ded c2 (3BcB:|2 dfec d2F2||

